; generated by Slic3r 1.3.0 on 2019-08-19 at 01:15:22

; external perimeters extrusion width = 0.33mm (1.72mm^3/s)
; perimeters extrusion width = 0.40mm (4.24mm^3/s)
; infill extrusion width = 0.38mm (2.66mm^3/s)
; solid infill extrusion width = 0.40mm (1.06mm^3/s)
; top infill extrusion width = 0.40mm (1.06mm^3/s)

M107
M104 S220 ; set temperature
G28 ; home all axes
G1 Z5 F5000 ; lift nozzle

; Filament gcode

M109 S220 ; set temperature and wait for it to be reached
G21 ; set units to millimeters
G90 ; use absolute coordinates
M82 ; use absolute distances for extrusion
G92 E0
G1 Z0.350 F7800.000
G1 E-2.00000 F2400.00000
G92 E0
G1 Z2.350 F7800.000
G1 X75.709 Y76.403 F7800.000
G1 Z0.350 F7800.000
G1 E2.00000 F2400.00000
G1 F1800
G1 X77.753 Y74.467 E2.25600
G1 X78.402 Y73.915 E2.33353
G1 X80.644 Y72.211 E2.58952
G1 X81.349 Y71.733 E2.66704
G1 X83.762 Y70.281 E2.92303
G1 X84.515 Y69.882 E3.00055
G1 X87.070 Y68.700 E3.25655
G1 X87.862 Y68.384 E3.33408
G1 X90.530 Y67.485 E3.59007
G1 X91.386 Y67.250 E3.67078
G1 X94.101 Y66.652 E3.92358
G1 X94.942 Y66.514 E4.00112
G1 X97.741 Y66.210 E4.25710
G1 X98.592 Y66.163 E4.33463
G1 X101.408 Y66.163 E4.59062
G1 X102.259 Y66.210 E4.66813
G1 X105.058 Y66.514 E4.92414
G1 X105.899 Y66.652 E5.00167
G1 X108.649 Y67.257 E5.25766
G1 X109.470 Y67.485 E5.33519
G1 X112.138 Y68.384 E5.59118
G1 X112.930 Y68.700 E5.66871
G1 X115.485 Y69.882 E5.92469
G1 X116.238 Y70.281 E6.00223
G1 X118.651 Y71.733 E6.25821
G1 X119.356 Y72.211 E6.33574
G1 X121.598 Y73.915 E6.59173
G1 X122.247 Y74.467 E6.66926
G1 X124.291 Y76.403 E6.92525
G1 X124.878 Y77.022 E7.00278
G1 X126.700 Y79.168 E7.25877
G1 X127.216 Y79.846 E7.33630
G1 X128.796 Y82.176 E7.59229
G1 X129.252 Y82.938 E7.67301
G1 X130.554 Y85.394 E7.92580
G1 X130.912 Y86.168 E8.00333
G1 X131.954 Y88.783 E8.25932
G1 X132.227 Y89.591 E8.33684
G1 X132.980 Y92.304 E8.59284
G1 X133.163 Y93.137 E8.67037
G1 X133.619 Y95.915 E8.92635
G1 X133.711 Y96.763 E9.00389
G1 X133.863 Y99.574 E9.25987
G1 X133.863 Y100.426 E9.33740
G1 X133.711 Y103.237 E9.59339
G1 X133.619 Y104.085 E9.67090
G1 X133.163 Y106.863 E9.92691
G1 X132.980 Y107.696 E10.00444
G1 X132.227 Y110.409 E10.26043
G1 X131.942 Y111.249 E10.34111
G1 X130.912 Y113.832 E10.59394
G1 X130.554 Y114.606 E10.67147
G1 X129.236 Y117.093 E10.92746
G1 X128.796 Y117.823 E11.00496
G1 X127.216 Y120.154 E11.26098
G1 X126.700 Y120.832 E11.33849
G1 X124.878 Y122.978 E11.59450
G1 X124.291 Y123.597 E11.67203
G1 X122.247 Y125.533 E11.92802
G1 X121.598 Y126.085 E12.00555
G1 X119.356 Y127.789 E12.26153
G1 X118.651 Y128.267 E12.33903
G1 X116.238 Y129.719 E12.59505
G1 X115.485 Y130.118 E12.67256
G1 X112.930 Y131.300 E12.92857
G1 X112.138 Y131.616 E13.00609
G1 X109.470 Y132.515 E13.26209
G1 X108.649 Y132.743 E13.33962
G1 X105.899 Y133.348 E13.59561
G1 X105.058 Y133.486 E13.67314
G1 X102.259 Y133.790 E13.92913
G1 X101.408 Y133.837 E14.00666
G1 X98.592 Y133.837 E14.26264
G1 X97.741 Y133.790 E14.34016
G1 X94.942 Y133.486 E14.59616
G1 X94.067 Y133.341 E14.67685
G1 X91.351 Y132.743 E14.92968
G1 X90.530 Y132.515 E15.00720
G1 X87.862 Y131.616 E15.26319
G1 X87.070 Y131.300 E15.34073
G1 X84.515 Y130.118 E15.59671
G1 X83.762 Y129.719 E15.67424
G1 X81.349 Y128.267 E15.93023
G1 X80.644 Y127.789 E16.00776
G1 X78.402 Y126.085 E16.26375
G1 X77.753 Y125.533 E16.34128
G1 X75.709 Y123.597 E16.59727
G1 X75.100 Y122.951 E16.67799
G1 X73.300 Y120.832 E16.93078
G1 X72.784 Y120.154 E17.00831
G1 X71.204 Y117.824 E17.26430
G1 X70.764 Y117.093 E17.34182
G1 X69.446 Y114.606 E17.59782
G1 X69.088 Y113.832 E17.67533
G1 X68.046 Y111.217 E17.93134
G1 X67.773 Y110.409 E18.00886
G1 X67.020 Y107.696 E18.26486
G1 X66.837 Y106.863 E18.34239
G1 X66.381 Y104.085 E18.59837
G1 X66.289 Y103.237 E18.67590
G1 X66.137 Y100.426 E18.93189
G1 X66.137 Y99.574 E19.00942
G1 X66.289 Y96.763 E19.26541
G1 X66.381 Y95.915 E19.34294
G1 X66.837 Y93.137 E19.59893
G1 X67.020 Y92.304 E19.67646
G1 X67.773 Y89.591 E19.93245
G1 X68.046 Y88.783 E20.00998
G1 X69.088 Y86.168 E20.26597
G1 X69.446 Y85.394 E20.34348
G1 X70.764 Y82.907 E20.59948
G1 X71.204 Y82.177 E20.67700
G1 X72.784 Y79.846 E20.93300
G1 X73.300 Y79.168 E21.01052
G1 X75.122 Y77.022 E21.26652
G1 X75.678 Y76.436 E21.33995
G1 X76.138 Y76.857 F7800.000
G1 F1800
G1 X78.182 Y74.920 E21.59595
G1 X78.781 Y74.412 E21.66732
G1 X81.022 Y72.709 E21.92331
G1 X81.671 Y72.268 E21.99468
G1 X84.084 Y70.817 E22.25068
G1 X84.777 Y70.449 E22.32204
G1 X87.332 Y69.267 E22.57804
G1 X88.062 Y68.976 E22.64942
G1 X90.729 Y68.077 E22.90541
G1 X91.520 Y67.860 E22.97997
G1 X94.235 Y67.262 E23.23277
G1 X95.010 Y67.135 E23.30415
G1 X97.809 Y66.831 E23.56014
G1 X98.592 Y66.788 E23.63152
G1 X101.408 Y66.788 E23.88750
G1 X102.191 Y66.831 E23.95887
G1 X104.990 Y67.135 E24.21487
G1 X105.765 Y67.262 E24.28625
G1 X108.514 Y67.867 E24.54223
G1 X109.271 Y68.077 E24.61361
G1 X111.938 Y68.976 E24.86960
G1 X112.668 Y69.267 E24.94098
G1 X115.223 Y70.449 E25.19697
G1 X115.916 Y70.817 E25.26834
G1 X118.329 Y72.268 E25.52433
G1 X118.978 Y72.709 E25.59571
G1 X121.219 Y74.412 E25.85170
G1 X121.818 Y74.920 E25.92308
G1 X123.862 Y76.857 E26.17906
G1 X124.401 Y77.426 E26.25044
G1 X126.224 Y79.572 E26.50643
G1 X126.699 Y80.197 E26.57781
G1 X128.279 Y82.527 E26.83380
G1 X128.684 Y83.200 E26.90517
G1 X130.002 Y85.687 E27.16116
G1 X130.332 Y86.399 E27.23254
G1 X131.374 Y89.015 E27.48853
G1 X131.624 Y89.759 E27.55990
G1 X132.378 Y92.471 E27.81589
G1 X132.546 Y93.238 E27.88727
G1 X133.002 Y96.016 E28.14326
G1 X133.087 Y96.796 E28.21464
G1 X133.239 Y99.608 E28.47063
G1 X133.239 Y100.392 E28.54200
G1 X133.087 Y103.204 E28.79799
G1 X133.002 Y103.984 E28.86935
G1 X132.546 Y106.762 E29.12536
G1 X132.378 Y107.529 E29.19674
G1 X131.625 Y110.241 E29.45272
G1 X131.361 Y111.018 E29.52726
G1 X130.332 Y113.601 E29.78009
G1 X130.002 Y114.313 E29.85146
G1 X128.684 Y116.800 E30.10745
G1 X128.279 Y117.473 E30.17880
G1 X126.699 Y119.803 E30.43482
G1 X126.224 Y120.428 E30.50618
G1 X124.401 Y122.574 E30.76218
G1 X123.862 Y123.143 E30.83356
G1 X121.818 Y125.080 E31.08955
G1 X121.219 Y125.588 E31.16093
G1 X118.978 Y127.291 E31.41691
G1 X118.329 Y127.732 E31.48826
G1 X115.916 Y129.183 E31.74428
G1 X115.223 Y129.551 E31.81563
G1 X112.668 Y130.733 E32.07165
G1 X111.939 Y131.024 E32.14302
G1 X109.271 Y131.923 E32.39901
G1 X108.514 Y132.133 E32.47039
G1 X105.765 Y132.738 E32.72638
G1 X104.990 Y132.865 E32.79776
G1 X102.191 Y133.169 E33.05374
G1 X101.408 Y133.212 E33.12512
G1 X98.592 Y133.212 E33.38111
G1 X97.809 Y133.169 E33.45247
G1 X95.010 Y132.865 E33.70847
G1 X94.201 Y132.730 E33.78302
G1 X91.486 Y132.133 E34.03584
G1 X90.729 Y131.923 E34.10721
G1 X88.062 Y131.024 E34.36320
G1 X87.332 Y130.733 E34.43458
G1 X84.777 Y129.551 E34.69057
G1 X84.084 Y129.183 E34.76195
G1 X81.671 Y127.732 E35.01793
G1 X81.022 Y127.291 E35.08931
G1 X78.781 Y125.588 E35.34530
G1 X78.182 Y125.080 E35.41667
G1 X76.138 Y123.143 E35.67267
G1 X75.576 Y122.547 E35.74723
G1 X73.776 Y120.428 E36.00003
G1 X73.301 Y119.803 E36.07141
G1 X71.721 Y117.473 E36.32739
G1 X71.316 Y116.800 E36.39876
G1 X69.998 Y114.313 E36.65476
G1 X69.668 Y113.601 E36.72612
G1 X68.626 Y110.985 E36.98212
G1 X68.376 Y110.241 E37.05349
G1 X67.622 Y107.529 E37.30949
G1 X67.454 Y106.762 E37.38087
G1 X66.998 Y103.984 E37.63686
G1 X66.913 Y103.204 E37.70824
G1 X66.761 Y100.392 E37.96422
G1 X66.763 Y99.572 E38.03879
G1 X66.913 Y96.796 E38.29158
G1 X66.998 Y96.016 E38.36296
G1 X67.454 Y93.238 E38.61895
G1 X67.622 Y92.471 E38.69033
G1 X68.375 Y89.759 E38.94632
G1 X68.626 Y89.015 E39.01770
G1 X69.668 Y86.399 E39.27368
G1 X69.998 Y85.687 E39.34505
G1 X71.316 Y83.200 E39.60105
G1 X71.721 Y82.527 E39.67242
G1 X73.301 Y80.197 E39.92841
G1 X73.776 Y79.572 E39.99978
G1 X75.599 Y77.426 E40.25578
G1 X76.107 Y76.889 E40.32306
G1 X76.568 Y77.310 F7800.000
G1 F1800
G1 X78.612 Y75.374 E40.57905
G1 X79.159 Y74.910 E40.64428
G1 X81.400 Y73.206 E40.90027
G1 X81.994 Y72.804 E40.96548
G1 X84.406 Y71.352 E41.22148
G1 X85.040 Y71.016 E41.28669
G1 X87.595 Y69.834 E41.54269
G1 X88.261 Y69.569 E41.60792
G1 X90.929 Y68.670 E41.86391
G1 X91.620 Y68.478 E41.92912
G1 X94.370 Y67.873 E42.18512
G1 X95.077 Y67.756 E42.25035
G1 X97.876 Y67.452 E42.50633
G1 X98.592 Y67.413 E42.57156
G1 X101.408 Y67.413 E42.82755
G1 X102.124 Y67.452 E42.89276
G1 X104.923 Y67.756 E43.14876
G1 X105.630 Y67.873 E43.21399
G1 X108.380 Y68.478 E43.46997
G1 X109.071 Y68.670 E43.53520
G1 X111.739 Y69.569 E43.79119
G1 X112.405 Y69.834 E43.85641
G1 X114.960 Y71.016 E44.11240
G1 X115.594 Y71.352 E44.17763
G1 X118.006 Y72.803 E44.43361
G1 X118.600 Y73.206 E44.49884
G1 X120.841 Y74.910 E44.75483
G1 X121.388 Y75.374 E44.82005
G1 X123.432 Y77.310 E45.07604
G1 X123.925 Y77.831 E45.14127
G1 X125.748 Y79.977 E45.39726
G1 X126.182 Y80.548 E45.46248
G1 X127.762 Y82.878 E45.71847
G1 X128.131 Y83.492 E45.78369
G1 X129.450 Y85.980 E46.03968
G1 X129.751 Y86.631 E46.10491
G1 X130.793 Y89.246 E46.36089
G1 X131.022 Y89.926 E46.42611
G1 X131.776 Y92.638 E46.68211
G1 X131.930 Y93.339 E46.74733
G1 X132.385 Y96.117 E47.00332
G1 X132.463 Y96.830 E47.06855
G1 X132.615 Y99.641 E47.32454
G1 X132.615 Y100.359 E47.38976
G1 X132.463 Y103.170 E47.64575
G1 X132.385 Y103.883 E47.71096
G1 X131.930 Y106.661 E47.96696
G1 X131.776 Y107.362 E48.03219
G1 X131.022 Y110.074 E48.28818
G1 X130.780 Y110.786 E48.35656
G1 X129.751 Y113.369 E48.60939
G1 X129.450 Y114.020 E48.67461
G1 X128.131 Y116.508 E48.93060
G1 X127.762 Y117.122 E48.99580
G1 X126.182 Y119.452 E49.25181
G1 X125.748 Y120.023 E49.31702
G1 X123.925 Y122.169 E49.57302
G1 X123.432 Y122.690 E49.63825
G1 X121.388 Y124.626 E49.89424
G1 X120.841 Y125.090 E49.95947
G1 X118.600 Y126.794 E50.21545
G1 X118.007 Y127.196 E50.28065
G1 X115.594 Y128.648 E50.53667
G1 X114.961 Y128.984 E50.60187
G1 X112.405 Y130.166 E50.85788
G1 X111.739 Y130.431 E50.92310
G1 X109.071 Y131.330 E51.17909
G1 X108.380 Y131.522 E51.24432
G1 X105.630 Y132.127 E51.50031
G1 X104.923 Y132.244 E51.56553
G1 X102.124 Y132.548 E51.82152
G1 X101.408 Y132.587 E51.88675
G1 X98.592 Y132.587 E52.14273
G1 X97.876 Y132.548 E52.20795
G1 X95.077 Y132.244 E52.46395
G1 X94.370 Y132.128 E52.52914
G1 X91.620 Y131.522 E52.78516
G1 X90.929 Y131.330 E52.85038
G1 X88.261 Y130.431 E53.10637
G1 X87.595 Y130.166 E53.17160
G1 X85.040 Y128.984 E53.42759
G1 X84.406 Y128.648 E53.49281
G1 X81.994 Y127.196 E53.74880
G1 X81.400 Y126.794 E53.81402
G1 X79.159 Y125.090 E54.07001
G1 X78.612 Y124.626 E54.13524
G1 X76.568 Y122.690 E54.39123
G1 X76.052 Y122.142 E54.45964
G1 X74.252 Y120.023 E54.71244
G1 X73.818 Y119.452 E54.77766
G1 X72.238 Y117.122 E55.03365
G1 X71.869 Y116.508 E55.09887
G1 X70.550 Y114.020 E55.35486
G1 X70.249 Y113.369 E55.42007
G1 X69.207 Y110.754 E55.67608
G1 X68.978 Y110.074 E55.74129
G1 X68.224 Y107.362 E55.99729
G1 X68.070 Y106.661 E56.06252
G1 X67.615 Y103.883 E56.31850
G1 X67.537 Y103.170 E56.38373
G1 X67.385 Y100.359 E56.63972
G1 X67.387 Y99.606 E56.70814
G1 X67.537 Y96.830 E56.96093
G1 X67.615 Y96.117 E57.02615
G1 X68.070 Y93.339 E57.28214
G1 X68.224 Y92.638 E57.34737
G1 X68.978 Y89.926 E57.60335
G1 X69.207 Y89.246 E57.66858
G1 X70.249 Y86.631 E57.92457
G1 X70.550 Y85.980 E57.98978
G1 X71.869 Y83.492 E58.24578
G1 X72.238 Y82.878 E58.31100
G1 X73.818 Y80.548 E58.56699
G1 X74.252 Y79.977 E58.63221
G1 X76.075 Y77.831 E58.88821
G1 X76.537 Y77.343 E58.94933
G1 X77.645 Y78.447 F7800.000
G1 F1800
G1 X79.789 Y76.417 E59.23573
G1 X79.998 Y76.240 E59.26232
G1 X82.457 Y74.370 E59.56201
G1 X82.684 Y74.216 E59.58859
G1 X85.331 Y72.624 E59.88828
G1 X85.573 Y72.495 E59.91486
G1 X88.377 Y71.198 E60.21456
G1 X88.631 Y71.097 E60.24115
G1 X91.559 Y70.110 E60.54082
G1 X91.823 Y70.037 E60.56741
G1 X94.840 Y69.373 E60.86710
G1 X95.111 Y69.329 E60.89369
G1 X98.182 Y68.995 E61.19337
G1 X98.455 Y68.980 E61.21996
G1 X101.545 Y68.980 E61.51965
G1 X101.818 Y68.995 E61.54623
G1 X104.889 Y69.329 E61.84592
G1 X105.160 Y69.373 E61.87251
G1 X108.177 Y70.037 E62.17220
G1 X108.441 Y70.110 E62.19880
G1 X111.369 Y71.097 E62.49847
G1 X111.623 Y71.198 E62.52506
G1 X114.427 Y72.495 E62.82475
G1 X114.669 Y72.624 E62.85134
G1 X117.316 Y74.216 E63.15101
G1 X117.543 Y74.370 E63.17760
G1 X120.002 Y76.240 E63.47729
G1 X120.211 Y76.417 E63.50388
G1 X122.454 Y78.542 E63.80357
G1 X122.643 Y78.741 E63.83016
G1 X124.642 Y81.095 E64.12984
G1 X124.808 Y81.313 E64.15643
G1 X126.542 Y83.870 E64.45611
G1 X126.683 Y84.105 E64.48269
G1 X128.130 Y86.835 E64.78239
G1 X128.245 Y87.083 E64.80898
G1 X129.389 Y89.953 E65.10865
G1 X129.476 Y90.213 E65.13524
G1 X130.303 Y93.190 E65.43494
G1 X130.362 Y93.457 E65.46154
G1 X130.862 Y96.506 E65.76121
G1 X130.891 Y96.778 E65.78780
G1 X131.058 Y99.863 E66.08748
G1 X131.058 Y100.137 E66.11406
G1 X130.891 Y103.222 E66.41374
G1 X130.862 Y103.494 E66.44032
G1 X130.362 Y106.543 E66.74003
G1 X130.303 Y106.811 E66.76662
G1 X129.476 Y109.787 E67.06629
G1 X129.325 Y110.207 E67.10955
G1 X128.245 Y112.917 E67.39256
G1 X128.130 Y113.165 E67.41914
G1 X126.683 Y115.895 E67.71883
G1 X126.542 Y116.130 E67.74540
G1 X124.808 Y118.687 E68.04510
G1 X124.643 Y118.905 E68.07168
G1 X122.643 Y121.259 E68.37138
G1 X122.454 Y121.458 E68.39797
G1 X120.211 Y123.583 E68.69765
G1 X120.002 Y123.760 E68.72425
G1 X117.543 Y125.630 E69.02392
G1 X117.316 Y125.784 E69.05049
G1 X114.669 Y127.376 E69.35019
G1 X114.427 Y127.505 E69.37677
G1 X111.623 Y128.802 E69.67647
G1 X111.369 Y128.903 E69.70305
G1 X108.441 Y129.890 E70.00274
G1 X108.177 Y129.963 E70.02933
G1 X105.160 Y130.627 E70.32902
G1 X104.889 Y130.671 E70.35561
G1 X101.818 Y131.005 E70.65529
G1 X101.545 Y131.020 E70.68188
G1 X98.455 Y131.020 E70.98156
G1 X98.182 Y131.005 E71.00814
G1 X95.111 Y130.671 E71.30783
G1 X94.672 Y130.590 E71.35110
G1 X91.823 Y129.963 E71.63410
G1 X91.559 Y129.890 E71.66068
G1 X88.631 Y128.903 E71.96037
G1 X88.377 Y128.802 E71.98696
G1 X85.573 Y127.505 E72.28665
G1 X85.331 Y127.376 E72.31324
G1 X82.684 Y125.784 E72.61292
G1 X82.457 Y125.630 E72.63950
G1 X79.998 Y123.760 E72.93919
G1 X79.789 Y123.583 E72.96577
G1 X77.546 Y121.458 E73.26546
G1 X77.358 Y121.259 E73.29204
G1 X75.357 Y118.905 E73.59174
G1 X75.192 Y118.687 E73.61833
G1 X73.458 Y116.130 E73.91801
G1 X73.317 Y115.895 E73.94459
G1 X71.870 Y113.165 E74.24428
G1 X71.691 Y112.757 E74.28756
G1 X70.611 Y110.047 E74.57054
G1 X70.524 Y109.787 E74.59712
G1 X69.697 Y106.810 E74.89682
G1 X69.638 Y106.543 E74.92340
G1 X69.138 Y103.494 E75.22309
G1 X69.109 Y103.222 E75.24968
G1 X68.942 Y100.137 E75.54936
G1 X68.942 Y99.863 E75.57595
G1 X69.109 Y96.778 E75.87564
G1 X69.138 Y96.506 E75.90222
G1 X69.638 Y93.457 E76.20191
G1 X69.697 Y93.190 E76.22850
G1 X70.524 Y90.213 E76.52818
G1 X70.611 Y89.953 E76.55477
G1 X71.755 Y87.083 E76.85445
G1 X71.870 Y86.835 E76.88104
G1 X73.317 Y84.105 E77.18073
G1 X73.458 Y83.870 E77.20731
G1 X75.192 Y81.313 E77.50700
G1 X75.357 Y81.095 E77.53358
G1 X77.357 Y78.741 E77.83328
G1 X77.613 Y78.478 E77.86878
G1 X78.104 Y78.931 F7800.000
G1 F1800
G1 X80.415 Y76.760 E78.17648
G1 X83.043 Y74.778 E78.49570
G1 X85.869 Y73.093 E78.81494
G1 X88.861 Y71.723 E79.13419
G1 X91.984 Y70.684 E79.45340
G1 X94.966 Y70.028 E79.74960
G1 X98.236 Y69.659 E80.06883
G1 X101.527 Y69.646 E80.38806
G1 X104.799 Y69.989 E80.70730
G1 X108.016 Y70.684 E81.02654
G1 X111.139 Y71.723 E81.34577
G1 X111.360 Y71.811 E81.36886
G1 X114.341 Y73.204 E81.68809
G1 X117.154 Y74.912 E82.00732
G1 X119.585 Y76.760 E82.30350
G1 X121.982 Y79.013 E82.62274
G1 X124.123 Y81.513 E82.94197
G1 X125.980 Y84.229 E83.26120
G1 X127.533 Y87.131 E83.58044
G1 X127.633 Y87.347 E83.60353
G1 X128.839 Y90.409 E83.92275
G1 X129.656 Y93.351 E84.21894
G1 X130.201 Y96.596 E84.53818
