; generated by Slic3r 1.3.0 on 2019-08-19 at 01:16:59

; external perimeters extrusion width = 0.33mm (1.72mm^3/s)
; perimeters extrusion width = 0.40mm (4.24mm^3/s)
; infill extrusion width = 0.38mm (2.66mm^3/s)
; solid infill extrusion width = 0.40mm (1.06mm^3/s)
; top infill extrusion width = 0.40mm (1.06mm^3/s)

M107
M104 S220 ; set temperature
G28 ; home all axes
G1 Z5 F5000 ; lift nozzle

; Filament gcode

M109 S220 ; set temperature and wait for it to be reached
G21 ; set units to millimeters
G90 ; use absolute coordinates
M82 ; use absolute distances for extrusion
G92 E0
G1 Z0.350 F7800.000
G1 E-2.00000 F2400.00000
G92 E0
G1 Z2.350 F7800.000
G1 X81.700 Y81.466 F7800.000
G1 Z0.350 F7800.000
G1 E2.00000 F2400.00000
G1 F1800
G1 X82.358 Y80.848 E2.08211
G1 X84.006 Y79.455 E2.27834
G1 X84.511 Y79.056 E2.33685
G1 X85.061 Y78.671 E2.39787
G1 X86.880 Y77.510 E2.59410
G1 X87.407 Y77.197 E2.64989
G1 X88.029 Y76.873 E2.71364
G1 X89.987 Y75.965 E2.90987
G1 X90.523 Y75.735 E2.96295
G1 X91.211 Y75.486 E3.02941
G1 X93.432 Y74.798 E3.24086
G1 X93.925 Y74.665 E3.28735
G1 X94.548 Y74.535 E3.34520
G1 X97.118 Y74.111 E3.58207
G1 X97.957 Y74.038 E3.65858
G1 X100.428 Y73.958 E3.88343
G1 X101.348 Y73.990 E3.96710
G1 X103.783 Y74.233 E4.18964
G1 X104.870 Y74.417 E4.28991
G1 X107.150 Y74.958 E4.50299
G1 X107.905 Y75.178 E4.57448
G1 X110.417 Y76.131 E4.81875
G1 X111.109 Y76.436 E4.88752
G1 X111.606 Y76.691 E4.93828
G1 X113.498 Y77.728 E5.13451
G1 X114.336 Y78.253 E5.22441
G1 X116.339 Y79.721 E5.45026
G1 X116.882 Y80.159 E5.51362
G1 X117.339 Y80.574 E5.56980
G1 X118.891 Y82.074 E5.76603
G1 X119.350 Y82.557 E5.82667
G1 X119.769 Y83.052 E5.88557
G1 X121.106 Y84.745 E6.08180
G1 X121.480 Y85.261 E6.13974
G1 X121.847 Y85.831 E6.20134
G1 X122.946 Y87.688 E6.39757
G1 X123.236 Y88.222 E6.45278
G1 X123.537 Y88.862 E6.51712
G1 X124.379 Y90.849 E6.71335
G1 X124.585 Y91.388 E6.76583
G1 X124.809 Y92.091 E6.83289
G1 X125.379 Y94.172 E7.02912
G1 X125.505 Y94.704 E7.07889
G1 X125.640 Y95.460 E7.14866
G1 X125.928 Y97.599 E7.34489
G1 X125.997 Y98.375 E7.41577
G1 X126.016 Y98.910 E7.46443
G1 X126.016 Y101.068 E7.66066
G1 X125.984 Y101.817 E7.72882
G1 X125.929 Y102.379 E7.78020
G1 X125.641 Y104.518 E7.97643
G1 X125.517 Y105.227 E8.04187
G1 X125.382 Y105.806 E8.09597
G1 X124.812 Y107.888 E8.29220
G1 X124.605 Y108.545 E8.35492
G1 X124.384 Y109.130 E8.41174
G1 X123.541 Y111.117 E8.60797
G1 X123.263 Y111.715 E8.66797
G1 X122.953 Y112.292 E8.72751
G1 X121.853 Y114.148 E8.92374
G1 X121.514 Y114.679 E8.98101
G1 X121.113 Y115.235 E9.04328
G1 X119.561 Y117.189 E9.27021
G1 X118.899 Y117.907 E9.35902
G1 X117.348 Y119.407 E9.55525
G1 X116.927 Y119.792 E9.60707
G1 X116.349 Y120.261 E9.67479
G1 X114.385 Y121.702 E9.89627
G1 X113.509 Y122.256 E9.99052
G1 X111.616 Y123.293 E10.18675
G1 X111.163 Y123.527 E10.23312
G1 X110.428 Y123.854 E10.30628
G1 X107.963 Y124.793 E10.54614
G1 X107.163 Y125.029 E10.62203
G1 X104.880 Y125.570 E10.83531
G1 X103.770 Y125.759 E10.93775
G1 X101.204 Y126.010 E11.17213
G1 X100.310 Y126.031 E11.25349
G1 X97.764 Y125.941 E11.48513
G1 X96.844 Y125.841 E11.56924
G1 X94.363 Y125.418 E11.79813
G1 X93.435 Y125.191 E11.88497
G1 X91.374 Y124.552 E12.08120
G1 X91.060 Y124.452 E12.11112
G1 X90.143 Y124.094 E12.20070
G1 X87.914 Y123.058 E12.42414
G1 X87.025 Y122.568 E12.51644
G1 X84.979 Y121.262 E12.73715
G1 X84.014 Y120.539 E12.84689
G1 X82.309 Y119.098 E13.04984
G1 X81.693 Y118.517 E13.12681
G1 X79.942 Y116.595 E13.36322
G1 X79.487 Y116.044 E13.42822
G1 X79.148 Y115.581 E13.48039
G1 X77.927 Y113.802 E13.67662
G1 X77.615 Y113.309 E13.72967
G1 X77.272 Y112.692 E13.79380
G1 X76.299 Y110.766 E13.99003
G1 X76.012 Y110.140 E14.05262
G1 X75.794 Y109.581 E14.10721
G1 X75.086 Y107.542 E14.30344
G1 X74.918 Y107.011 E14.35414
G1 X74.740 Y106.302 E14.42063
G1 X74.310 Y104.187 E14.61686
G1 X74.232 Y103.763 E14.65600
G1 X74.128 Y102.910 E14.73415
G1 X73.966 Y100.456 E14.95781
G1 X73.963 Y99.595 E15.03609
G1 X74.124 Y97.111 E15.26246
G1 X74.198 Y96.440 E15.32387
G1 X74.296 Y95.865 E15.37689
G1 X74.726 Y93.750 E15.57312
G1 X74.850 Y93.230 E15.62176
G1 X75.073 Y92.483 E15.69262
G1 X75.781 Y90.444 E15.88885
G1 X76.063 Y89.733 E15.95845
G1 X76.293 Y89.234 E16.00836
G1 X77.267 Y87.308 E16.20459
G1 X77.624 Y86.667 E16.27138
G1 X77.935 Y86.177 E16.32412
G1 X79.156 Y84.398 E16.52035
G1 X79.576 Y83.833 E16.58435
G1 X79.968 Y83.365 E16.63987
G1 X81.669 Y81.499 E16.86942
G1 X82.141 Y81.909 F7800.000
G1 F1800
G1 X82.761 Y81.325 E16.94690
G1 X84.409 Y79.932 E17.14313
G1 X84.891 Y79.552 E17.19889
G1 X85.397 Y79.198 E17.25507
G1 X87.216 Y78.037 E17.45130
G1 X87.720 Y77.738 E17.50456
G1 X88.292 Y77.440 E17.56325
G1 X90.250 Y76.532 E17.75948
G1 X90.763 Y76.312 E17.81024
G1 X91.396 Y76.083 E17.87142
G1 X93.614 Y75.396 E18.08261
G1 X94.069 Y75.273 E18.12541
G1 X94.652 Y75.151 E18.17962
G1 X97.206 Y74.729 E18.41497
G1 X97.978 Y74.662 E18.48540
G1 X100.443 Y74.582 E18.70969
G1 X101.289 Y74.612 E18.78672
G1 X103.721 Y74.855 E19.00887
G1 X104.740 Y75.028 E19.10289
G1 X107.006 Y75.566 E19.31463
G1 X107.700 Y75.768 E19.38044
G1 X110.192 Y76.714 E19.62279
G1 X110.829 Y76.995 E19.68611
G1 X111.305 Y77.239 E19.73474
G1 X113.198 Y78.276 E19.93097
G1 X113.986 Y78.771 E20.01562
G1 X115.969 Y80.224 E20.23912
G1 X116.468 Y80.627 E20.29745
G1 X116.905 Y81.023 E20.35107
G1 X118.456 Y82.523 E20.54730
G1 X118.879 Y82.968 E20.60313
G1 X119.278 Y83.439 E20.65925
G1 X120.616 Y85.133 E20.85547
G1 X120.960 Y85.607 E20.90881
G1 X121.309 Y86.149 E20.96742
G1 X122.409 Y88.006 E21.16365
G1 X122.675 Y88.498 E21.21448
G1 X122.961 Y89.106 E21.27560
G1 X123.804 Y91.092 E21.47183
G1 X123.993 Y91.589 E21.52014
G1 X124.206 Y92.256 E21.58378
G1 X124.776 Y94.337 E21.78001
G1 X124.892 Y94.827 E21.82582
G1 X125.021 Y95.543 E21.89195
G1 X125.308 Y97.682 E22.08818
G1 X125.374 Y98.417 E22.15533
G1 X125.391 Y98.910 E22.20013
G1 X125.391 Y101.068 E22.39636
G1 X125.361 Y101.778 E22.46100
G1 X125.310 Y102.296 E22.50830
G1 X125.022 Y104.435 E22.70453
G1 X124.904 Y105.108 E22.76667
G1 X124.779 Y105.641 E22.81648
G1 X124.209 Y107.722 E23.01271
G1 X124.012 Y108.348 E23.07234
G1 X123.809 Y108.886 E23.12465
G1 X122.966 Y110.873 E23.32088
G1 X122.700 Y111.442 E23.37801
G1 X122.415 Y111.973 E23.43283
G1 X121.315 Y113.830 E23.62906
G1 X120.992 Y114.336 E23.68368
G1 X120.623 Y114.848 E23.74100
G1 X119.088 Y116.781 E23.96551
G1 X118.465 Y117.458 E24.04916
G1 X116.913 Y118.958 E24.24539
G1 X116.511 Y119.326 E24.29499
G1 X115.978 Y119.758 E24.35733
G1 X114.033 Y121.186 E24.57680
G1 X113.208 Y121.708 E24.66547
G1 X111.316 Y122.745 E24.86170
G1 X110.880 Y122.970 E24.90628
G1 X110.204 Y123.271 E24.97364
G1 X107.755 Y124.203 E25.21192
G1 X107.018 Y124.421 E25.28179
G1 X104.750 Y124.959 E25.49372
G1 X103.707 Y125.137 E25.58992
G1 X101.154 Y125.387 E25.82316
G1 X100.331 Y125.406 E25.89807
G1 X97.795 Y125.316 E26.12879
G1 X96.948 Y125.224 E26.20622
G1 X94.474 Y124.803 E26.43441
G1 X93.620 Y124.594 E26.51436
G1 X91.559 Y123.955 E26.71059
G1 X91.251 Y123.856 E26.74003
G1 X90.406 Y123.527 E26.82251
G1 X88.180 Y122.493 E27.04567
G1 X87.362 Y122.042 E27.13065
G1 X85.316 Y120.736 E27.35131
G1 X84.412 Y120.058 E27.45404
G1 X82.712 Y118.621 E27.65646
G1 X82.145 Y118.086 E27.72732
G1 X80.406 Y116.176 E27.96224
G1 X79.987 Y115.668 E28.02209
G1 X79.664 Y115.227 E28.07182
G1 X78.442 Y113.448 E28.26805
G1 X78.155 Y112.994 E28.31689
G1 X77.830 Y112.410 E28.37763
G1 X76.856 Y110.484 E28.57386
G1 X76.585 Y109.891 E28.63320
G1 X76.384 Y109.376 E28.68345
G1 X75.676 Y107.337 E28.87968
G1 X75.517 Y106.830 E28.92807
G1 X75.352 Y106.177 E28.98928
G1 X74.922 Y104.062 E29.18551
G1 X74.847 Y103.654 E29.22326
G1 X74.751 Y102.869 E29.29520
G1 X74.590 Y100.419 E29.51839
G1 X74.587 Y99.627 E29.59047
G1 X74.748 Y97.153 E29.81593
G1 X74.816 Y96.535 E29.87246
G1 X74.908 Y95.989 E29.92276
G1 X75.338 Y93.874 E30.11899
G1 X75.453 Y93.395 E30.16377
G1 X75.664 Y92.688 E30.23090
G1 X76.371 Y90.649 E30.42713
G1 X76.639 Y89.975 E30.49309
G1 X76.851 Y89.516 E30.53904
G1 X77.824 Y87.590 E30.73527
G1 X78.164 Y86.982 E30.79865
G1 X78.450 Y86.531 E30.84720
G1 X79.671 Y84.751 E31.04343
G1 X80.071 Y84.215 E31.10425
G1 X80.432 Y83.784 E31.15536
G1 X82.110 Y81.942 E31.38194
G1 X82.582 Y82.352 F7800.000
G1 F1800
G1 X83.165 Y81.802 E31.45480
G1 X84.813 Y80.409 E31.65103
G1 X85.271 Y80.049 E31.70404
G1 X85.733 Y79.725 E31.75538
G1 X87.552 Y78.564 E31.95161
G1 X88.032 Y78.279 E32.00233
G1 X88.555 Y78.007 E32.05596
G1 X90.513 Y77.099 E32.25219
G1 X91.003 Y76.889 E32.30063
G1 X91.581 Y76.680 E32.35654
G1 X93.797 Y75.993 E32.56747
G1 X94.212 Y75.881 E32.60657
G1 X94.756 Y75.767 E32.65714
G1 X97.293 Y75.348 E32.89096
G1 X97.998 Y75.287 E32.95533
G1 X100.458 Y75.207 E33.17905
G1 X101.231 Y75.234 E33.24944
G1 X103.658 Y75.477 E33.47121
G1 X104.379 Y75.589 E33.53753
G1 X104.761 Y75.673 E33.57317
G1 X106.861 Y76.173 E33.76940
G1 X107.496 Y76.359 E33.82954
G1 X109.968 Y77.297 E34.06997
G1 X110.550 Y77.554 E34.12783
G1 X112.897 Y78.824 E34.37053
G1 X113.419 Y79.142 E34.42612
G1 X113.861 Y79.447 E34.47488
G1 X115.598 Y80.727 E34.67111
G1 X116.054 Y81.095 E34.72442
G1 X116.470 Y81.472 E34.77547
G1 X118.022 Y82.972 E34.97170
G1 X118.408 Y83.379 E35.02271
G1 X118.788 Y83.826 E35.07605
G1 X120.125 Y85.520 E35.27228
G1 X120.440 Y85.954 E35.32102
G1 X120.771 Y86.468 E35.37663
G1 X121.871 Y88.325 E35.57286
G1 X122.114 Y88.774 E35.61931
G1 X122.386 Y89.350 E35.67722
G1 X123.229 Y91.336 E35.87344
G1 X123.402 Y91.790 E35.91759
G1 X123.603 Y92.421 E35.97780
G1 X124.173 Y94.502 E36.17403
G1 X124.280 Y94.950 E36.21590
G1 X124.401 Y95.626 E36.27838
G1 X124.689 Y97.765 E36.47461
G1 X124.751 Y98.460 E36.53802
G1 X124.766 Y98.910 E36.57896
G1 X124.766 Y101.068 E36.77519
G1 X124.737 Y101.739 E36.83632
G1 X124.690 Y102.213 E36.87954
G1 X124.403 Y104.351 E37.07577
G1 X124.290 Y104.989 E37.13461
G1 X124.177 Y105.476 E37.18012
G1 X123.606 Y107.557 E37.37635
G1 X123.419 Y108.150 E37.43290
G1 X123.233 Y108.642 E37.48070
G1 X122.391 Y110.629 E37.67693
G1 X122.138 Y111.169 E37.73119
G1 X121.877 Y111.655 E37.78128
G1 X120.777 Y113.512 E37.97751
G1 X120.470 Y113.993 E38.02948
G1 X120.133 Y114.460 E38.08186
G1 X118.795 Y116.154 E38.27809
G1 X118.443 Y116.572 E38.32777
G1 X118.030 Y117.009 E38.38244
G1 X116.094 Y118.860 E38.62604
G1 X115.608 Y119.255 E38.68301
G1 X113.680 Y120.671 E38.90048
G1 X112.908 Y121.160 E38.98356
G1 X111.016 Y122.197 E39.17979
G1 X110.597 Y122.413 E39.22258
G1 X109.979 Y122.688 E39.28413
G1 X107.546 Y123.614 E39.52084
G1 X106.873 Y123.813 E39.58469
G1 X104.620 Y124.348 E39.79526
G1 X103.644 Y124.515 E39.88523
G1 X101.365 Y124.743 E40.09350
G1 X100.351 Y124.782 E40.18576
G1 X97.826 Y124.692 E40.41556
G1 X97.052 Y124.608 E40.48632
G1 X94.586 Y124.188 E40.71381
G1 X93.805 Y123.997 E40.78687
G1 X91.744 Y123.358 E40.98310
G1 X91.441 Y123.261 E41.01205
G1 X90.669 Y122.960 E41.08742
G1 X88.446 Y121.927 E41.31032
G1 X87.698 Y121.515 E41.38797
G1 X85.653 Y120.209 E41.60858
G1 X84.811 Y119.577 E41.70430
G1 X83.116 Y118.143 E41.90619
G1 X82.597 Y117.655 E41.97094
G1 X80.869 Y115.757 E42.20438
G1 X80.486 Y115.293 E42.25907
G1 X80.179 Y114.873 E42.30636
G1 X78.957 Y113.094 E42.50259
G1 X78.695 Y112.680 E42.54722
G1 X78.387 Y112.129 E42.60458
G1 X77.414 Y110.203 E42.80081
G1 X77.158 Y109.642 E42.85688
G1 X76.974 Y109.171 E42.90281
G1 X76.115 Y106.649 E43.14509
G1 X75.964 Y106.053 E43.20102
G1 X75.534 Y103.938 E43.39725
G1 X75.463 Y103.545 E43.43361
G1 X75.375 Y102.827 E43.49935
G1 X75.213 Y100.383 E43.72207
G1 X75.211 Y99.659 E43.78794
G1 X75.371 Y97.194 E44.01249
G1 X75.434 Y96.630 E44.06414
G1 X75.521 Y96.114 E44.11173
G1 X75.951 Y93.999 E44.30796
G1 X76.055 Y93.561 E44.34887
G1 X76.254 Y92.893 E44.41227
G1 X76.962 Y90.854 E44.60850
G1 X77.215 Y90.217 E44.67083
G1 X77.409 Y89.798 E44.71282
G1 X78.382 Y87.872 E44.90905
G1 X78.704 Y87.296 E44.96902
G1 X78.965 Y86.884 E45.01338
G1 X80.186 Y85.105 E45.20961
G1 X80.566 Y84.597 E45.26724
G1 X80.895 Y84.203 E45.31395
G1 X82.550 Y82.385 E45.53756
G1 X83.687 Y83.462 F7800.000
G1 F1800
G1 X84.097 Y83.065 E45.59295
G1 X85.871 Y81.566 E45.81823
G1 X86.485 Y81.103 E45.89285
G1 X88.443 Y79.854 E46.11813
G1 X88.913 Y79.579 E46.17092
G1 X91.219 Y78.498 E46.41804
G1 X91.712 Y78.291 E46.46990
G1 X94.332 Y77.468 E46.73635
G1 X94.937 Y77.325 E46.79657
G1 X97.646 Y76.880 E47.06294
G1 X97.916 Y76.857 E47.08918
G1 X100.642 Y76.770 E47.35380
G1 X100.938 Y76.780 E47.38249
G1 X103.640 Y77.049 E47.64593
G1 X104.369 Y77.190 E47.71801
G1 X106.863 Y77.797 E47.96698
G1 X107.351 Y77.968 E48.01712
G1 X109.740 Y78.901 E48.26596
G1 X110.210 Y79.138 E48.31703
G1 X112.247 Y80.254 E48.54231
G1 X112.889 Y80.677 E48.61694
G1 X114.933 Y82.195 E48.86392
G1 X115.340 Y82.558 E48.91685
G1 X117.010 Y84.173 E49.14213
G1 X117.520 Y84.748 E49.21676
G1 X118.959 Y86.571 E49.44204
G1 X119.390 Y87.209 E49.51666
G1 X120.666 Y89.378 E49.76086
G1 X120.916 Y89.895 E49.81657
G1 X121.823 Y92.033 E50.04186
G1 X122.072 Y92.761 E50.11648
G1 X122.726 Y95.172 E50.35881
G1 X122.838 Y95.755 E50.41639
G1 X123.148 Y98.056 E50.64168
G1 X123.199 Y98.824 E50.71630
G1 X123.199 Y101.146 E50.94158
G1 X123.168 Y101.733 E50.99861
G1 X122.841 Y104.215 E51.24149
G1 X122.691 Y104.970 E51.31612
G1 X122.078 Y107.210 E51.54140
G1 X121.901 Y107.750 E51.59656
G1 X120.924 Y110.076 E51.84131
G1 X120.683 Y110.581 E51.89554
G1 X119.400 Y112.764 E52.14121
G1 X118.971 Y113.403 E52.21584
G1 X117.532 Y115.226 E52.44112
G1 X117.024 Y115.803 E52.51574
G1 X115.355 Y117.417 E52.74102
G1 X114.961 Y117.772 E52.79245
G1 X112.905 Y119.301 E53.04093
G1 X112.264 Y119.726 E53.11554
G1 X109.773 Y121.074 E53.39037
G1 X107.370 Y122.014 E53.64071
G1 X106.640 Y122.258 E53.71532
G1 X103.901 Y122.900 E53.98827
G1 X103.626 Y122.943 E54.01524
G1 X100.835 Y123.214 E54.28725
G1 X100.548 Y123.221 E54.31516
G1 X98.227 Y123.144 E54.54044
G1 X97.459 Y123.088 E54.61505
G1 X94.714 Y122.620 E54.88519
G1 X94.416 Y122.547 E54.91498
G1 X91.767 Y121.721 E55.18418
G1 X91.472 Y121.606 E55.21491
G1 X89.365 Y120.628 E55.44020
G1 X88.678 Y120.282 E55.51481
G1 X86.365 Y118.805 E55.78101
G1 X86.113 Y118.621 E55.81130
G1 X84.023 Y116.859 E56.07649
G1 X83.825 Y116.673 E56.10288
G1 X81.808 Y114.444 E56.39455
G1 X81.501 Y114.032 E56.44438
G1 X80.196 Y112.130 E56.66808
G1 X79.820 Y111.489 E56.74019
G1 X78.780 Y109.431 E56.96389
G1 X78.556 Y108.928 E57.01730
G1 X77.729 Y106.570 E57.25971
G1 X77.523 Y105.856 E57.33183
G1 X76.981 Y103.134 E57.60103
G1 X76.947 Y102.860 E57.62783
G1 X76.769 Y100.153 E57.89101
G1 X76.787 Y99.513 E57.95313
G1 X76.942 Y97.191 E58.17890
G1 X77.044 Y96.485 E58.24807
G1 X77.503 Y94.227 E58.47163
G1 X77.657 Y93.644 E58.53009
G1 X78.526 Y91.141 E58.78717
G1 X78.767 Y90.583 E58.84608
G1 X79.814 Y88.511 E59.07134
G1 X80.204 Y87.848 E59.14595
G1 X81.518 Y85.933 E59.37122
G1 X81.865 Y85.477 E59.42681
G1 X83.655 Y83.494 E59.68597
G1 X84.157 Y83.934 F7800.000
G1 F1800
G1 X84.538 Y83.565 E59.73741
G1 X86.295 Y82.080 E59.96059
G1 X86.856 Y81.657 E60.02872
G1 X88.795 Y80.419 E60.25191
G1 X89.233 Y80.164 E60.30109
G1 X91.494 Y79.106 E60.54323
G1 X91.953 Y78.913 E60.59161
G1 X94.517 Y78.109 E60.85221
G1 X95.058 Y77.981 E60.90618
G1 X97.722 Y77.543 E61.16805
G1 X100.638 Y77.437 E61.45115
G1 X101.265 Y77.480 E61.51211
G1 X103.555 Y77.711 E61.73536
G1 X104.219 Y77.839 E61.80096
G1 X106.660 Y78.433 E62.04471
G1 X107.117 Y78.592 E62.09159
G1 X109.457 Y79.504 E62.33523
G1 X109.896 Y79.725 E62.38292
G1 X111.913 Y80.831 E62.60610
G1 X112.499 Y81.218 E62.67425
G1 X114.503 Y82.705 E62.91627
G1 X114.882 Y83.043 E62.96557
G1 X116.536 Y84.642 E63.18876
