; generated by Slic3r 1.3.0 on 2019-08-19 at 01:14:08

; external perimeters extrusion width = 0.33mm (1.72mm^3/s)
; perimeters extrusion width = 0.40mm (4.24mm^3/s)
; infill extrusion width = 0.38mm (2.66mm^3/s)
; solid infill extrusion width = 0.40mm (1.06mm^3/s)
; top infill extrusion width = 0.40mm (1.06mm^3/s)

M107
M104 S220 ; set temperature
G28 ; home all axes
G1 Z5 F5000 ; lift nozzle

; Filament gcode

M109 S220 ; set temperature and wait for it to be reached
G21 ; set units to millimeters
G90 ; use absolute coordinates
M82 ; use absolute distances for extrusion
G92 E0
G1 Z0.350 F7800.000
G1 E-2.00000 F2400.00000
G92 E0
G1 Z2.350 F7800.000
G1 X38.086 Y42.364 F7800.000
G1 Z0.350 F7800.000
G1 E2.00000 F2400.00000
G1 F1800
G1 X39.734 Y40.970 E2.19623
G1 X40.240 Y40.572 E2.25474
G1 X40.789 Y40.187 E2.31577
G1 X42.608 Y39.026 E2.51200
G1 X43.136 Y38.712 E2.56779
G1 X43.758 Y38.389 E2.63154
G1 X45.715 Y37.481 E2.82776
G1 X46.252 Y37.251 E2.88085
G1 X46.939 Y37.002 E2.94730
G1 X49.161 Y36.314 E3.15876
G1 X49.654 Y36.181 E3.20524
G1 X50.277 Y36.051 E3.26310
G1 X52.613 Y35.659 E3.47850
G1 X53.685 Y35.553 E3.57645
G1 X56.157 Y35.473 E3.80131
G1 X57.076 Y35.506 E3.88498
G1 X57.365 Y35.533 E3.91129
G1 X59.512 Y35.749 E4.10752
G1 X60.368 Y35.883 E4.18635
G1 X62.879 Y36.473 E4.42089
G1 X63.634 Y36.694 E4.49237
G1 X66.145 Y37.647 E4.73664
G1 X66.837 Y37.952 E4.80542
G1 X67.334 Y38.207 E4.85618
G1 X69.613 Y39.470 E5.09311
G1 X113.479 Y66.861 E9.79556
G1 X114.074 Y67.271 E9.86126
G1 X116.684 Y69.274 E10.16042
G1 X160.517 Y106.984 E15.41814
G1 X162.561 Y108.920 E15.67413
G1 X163.147 Y109.539 E15.75166
G1 X164.970 Y111.685 E16.00765
G1 X165.486 Y112.363 E16.08518
G1 X167.065 Y114.694 E16.34116
G1 X167.505 Y115.424 E16.41869
G1 X168.824 Y117.911 E16.67468
G1 X169.182 Y118.685 E16.75221
G1 X170.224 Y121.301 E17.00820
G1 X170.505 Y122.142 E17.08892
G1 X171.249 Y124.821 E17.34172
G1 X171.432 Y125.654 E17.41925
G1 X171.888 Y128.432 E17.67523
G1 X171.980 Y129.280 E17.75277
G1 X172.132 Y132.091 E18.00875
G1 X172.132 Y132.943 E18.08628
G1 X171.980 Y135.755 E18.34227
G1 X171.888 Y136.602 E18.41978
G1 X171.432 Y139.380 E18.67579
G1 X171.249 Y140.213 E18.75332
G1 X170.496 Y142.926 E19.00931
G1 X170.224 Y143.733 E19.08680
G1 X169.182 Y146.349 E19.34283
G1 X168.824 Y147.123 E19.42036
G1 X167.505 Y149.610 E19.67634
G1 X167.066 Y150.340 E19.75385
G1 X165.486 Y152.671 E20.00986
G1 X164.970 Y153.349 E20.08737
G1 X163.147 Y155.495 E20.34338
G1 X162.561 Y156.114 E20.42091
G1 X160.517 Y158.050 E20.67690
G1 X159.867 Y158.602 E20.75443
G1 X157.626 Y160.306 E21.01042
G1 X156.890 Y160.802 E21.09111
G1 X154.508 Y162.236 E21.34393
G1 X153.755 Y162.635 E21.42144
G1 X151.199 Y163.817 E21.67745
G1 X150.407 Y164.133 E21.75497
G1 X147.739 Y165.032 E22.01097
G1 X146.918 Y165.260 E22.08850
G1 X144.168 Y165.865 E22.34449
G1 X143.327 Y166.003 E22.42202
G1 X140.528 Y166.308 E22.67800
G1 X139.677 Y166.354 E22.75554
G1 X136.862 Y166.354 E23.01152
G1 X136.010 Y166.308 E23.08904
G1 X133.212 Y166.003 E23.34504
G1 X132.336 Y165.858 E23.42573
G1 X129.621 Y165.260 E23.67856
G1 X128.799 Y165.032 E23.75608
G1 X126.131 Y164.133 E24.01207
G1 X125.339 Y163.817 E24.08961
G1 X122.784 Y162.635 E24.34559
G1 X122.031 Y162.236 E24.42312
G1 X119.619 Y160.785 E24.67911
G1 X118.913 Y160.306 E24.75664
G1 X116.303 Y158.304 E25.05579
G1 X72.470 Y120.593 E30.31351
G1 X70.426 Y118.657 E30.56950
G1 X69.859 Y118.061 E30.64436
G1 X35.528 Y77.949 E35.44516
G1 X34.877 Y77.096 E35.54272
G1 X33.656 Y75.317 E35.73895
G1 X33.344 Y74.824 E35.79201
G1 X33.001 Y74.208 E35.85613
G1 X31.835 Y71.873 E36.09347
G1 X31.522 Y71.097 E36.16953
G1 X30.815 Y69.058 E36.36576
G1 X30.647 Y68.526 E36.41646
G1 X30.468 Y67.817 E36.48295
G1 X30.038 Y65.703 E36.67918
G1 X29.961 Y65.279 E36.71832
G1 X29.857 Y64.426 E36.79647
G1 X29.695 Y61.972 E37.02012
G1 X29.691 Y61.111 E37.09841
G1 X29.709 Y60.780 E37.12855
G1 X29.853 Y58.627 E37.32478
G1 X29.927 Y57.955 E37.38619
G1 X30.025 Y57.380 E37.43921
G1 X30.455 Y55.266 E37.63544
G1 X30.579 Y54.745 E37.68408
G1 X30.802 Y53.999 E37.75494
G1 X31.510 Y51.960 E37.95117
G1 X31.690 Y51.490 E37.99697
G1 X32.022 Y50.750 E38.07068
G1 X32.995 Y48.824 E38.26691
G1 X33.353 Y48.183 E38.33370
G1 X33.663 Y47.693 E38.38643
G1 X34.885 Y45.913 E38.58266
G1 X35.305 Y45.349 E38.64667
G1 X35.697 Y44.880 E38.70219
G1 X37.144 Y43.280 E38.89842
G1 X37.614 Y42.797 E38.95967
G1 X38.053 Y42.394 E39.01386
G1 X38.490 Y42.841 F7800.000
G1 F1800
G1 X40.138 Y41.448 E39.21009
G1 X40.619 Y41.068 E39.26585
G1 X41.126 Y40.714 E39.32203
G1 X42.945 Y39.553 E39.51826
G1 X43.448 Y39.254 E39.57152
G1 X44.021 Y38.956 E39.63021
G1 X45.979 Y38.048 E39.82644
G1 X46.492 Y37.828 E39.87720
G1 X47.124 Y37.599 E39.93838
G1 X49.343 Y36.912 E40.14957
G1 X49.797 Y36.789 E40.19237
G1 X50.381 Y36.667 E40.24658
G1 X52.701 Y36.278 E40.46047
G1 X53.706 Y36.178 E40.55235
G1 X56.172 Y36.098 E40.77664
G1 X57.018 Y36.128 E40.85367
G1 X57.302 Y36.155 E40.87959
G1 X59.449 Y36.371 E41.07582
G1 X60.238 Y36.494 E41.14840
G1 X62.734 Y37.081 E41.38160
G1 X63.429 Y37.284 E41.44741
G1 X65.921 Y38.230 E41.68976
G1 X66.558 Y38.511 E41.75308
G1 X67.034 Y38.755 E41.80170
G1 X69.282 Y40.000 E42.03540
G1 X113.148 Y67.391 E46.73785
G1 X113.695 Y67.769 E46.79834
G1 X116.277 Y69.747 E47.09407
G1 X160.087 Y107.438 E52.34906
G1 X162.131 Y109.374 E52.60505
G1 X162.671 Y109.944 E52.67643
G1 X164.493 Y112.089 E52.93242
G1 X164.968 Y112.714 E53.00380
G1 X166.548 Y115.044 E53.25978
G1 X166.953 Y115.717 E53.33116
G1 X168.272 Y118.204 E53.58715
G1 X168.601 Y118.917 E53.65853
G1 X169.643 Y121.532 E53.91451
G1 X169.903 Y122.310 E53.98908
G1 X170.647 Y124.988 E54.24188
G1 X170.816 Y125.755 E54.31326
G1 X171.271 Y128.533 E54.56924
G1 X171.356 Y129.314 E54.64062
G1 X171.508 Y132.125 E54.89661
G1 X171.508 Y132.910 E54.96799
G1 X171.356 Y135.721 E55.22397
G1 X171.271 Y136.501 E55.29534
G1 X170.816 Y139.279 E55.55134
G1 X170.647 Y140.046 E55.62272
G1 X169.894 Y142.759 E55.87871
G1 X169.643 Y143.502 E55.95005
G1 X168.601 Y146.118 E56.20607
G1 X168.272 Y146.830 E56.27745
G1 X166.953 Y149.317 E56.53344
G1 X166.548 Y149.990 E56.60479
G1 X164.968 Y152.320 E56.86080
G1 X164.493 Y152.945 E56.93216
G1 X162.671 Y155.091 E57.18817
G1 X162.131 Y155.661 E57.25955
G1 X160.087 Y157.597 E57.51554
G1 X159.489 Y158.105 E57.58692
G1 X157.248 Y159.809 E57.84290
G1 X156.568 Y160.267 E57.91748
G1 X154.186 Y161.700 E58.17026
G1 X153.492 Y162.068 E58.24162
G1 X150.937 Y163.250 E58.49763
G1 X150.208 Y163.541 E58.56900
G1 X147.540 Y164.440 E58.82499
G1 X146.784 Y164.650 E58.89637
G1 X144.034 Y165.255 E59.15236
G1 X143.259 Y165.382 E59.22374
G1 X140.461 Y165.686 E59.47973
G1 X139.677 Y165.729 E59.55111
G1 X136.862 Y165.729 E59.80709
G1 X136.078 Y165.686 E59.87846
G1 X133.279 Y165.382 E60.13446
G1 X132.470 Y165.247 E60.20900
G1 X129.755 Y164.650 E60.46182
G1 X128.999 Y164.440 E60.53319
G1 X126.331 Y163.541 E60.78919
G1 X125.602 Y163.250 E60.86057
G1 X123.047 Y162.068 E61.11655
G1 X122.353 Y161.700 E61.18793
G1 X119.941 Y160.249 E61.44392
G1 X119.291 Y159.809 E61.51529
G1 X116.710 Y157.830 E61.81102
G1 X72.900 Y120.140 E67.06601
G1 X70.856 Y118.204 E67.32200
G1 X70.334 Y117.654 E67.39092
G1 X36.003 Y77.543 E72.19173
G1 X35.392 Y76.743 E72.28325
G1 X34.171 Y74.964 E72.47948
G1 X33.883 Y74.510 E72.52832
G1 X33.558 Y73.926 E72.58906
G1 X32.408 Y71.623 E72.82313
G1 X32.113 Y70.892 E72.89487
G1 X31.405 Y68.853 E73.09110
G1 X31.245 Y68.346 E73.13948
G1 X31.081 Y67.693 E73.20069
G1 X30.651 Y65.578 E73.39692
G1 X30.576 Y65.170 E73.43467
G1 X30.480 Y64.384 E73.50662
G1 X30.318 Y61.935 E73.72980
G1 X30.315 Y61.143 E73.80188
G1 X30.332 Y60.822 E73.83111
G1 X30.477 Y58.668 E74.02734
G1 X30.545 Y58.050 E74.08387
G1 X30.637 Y57.505 E74.13418
G1 X31.067 Y55.390 E74.33041
G1 X31.181 Y54.911 E74.37518
G1 X31.392 Y54.204 E74.44231
G1 X32.266 Y51.732 E74.68068
G1 X32.580 Y51.032 E74.75044
G1 X33.553 Y49.106 E74.94667
G1 X33.893 Y48.497 E75.01005
G1 X34.179 Y48.046 E75.05860
G1 X35.400 Y46.267 E75.25483
G1 X35.800 Y45.731 E75.31564
G1 X36.160 Y45.300 E75.36676
G1 X37.608 Y43.699 E75.56299
G1 X38.055 Y43.240 E75.62127
G1 X38.457 Y42.871 E75.67084
G1 X38.893 Y43.318 F7800.000
G1 F1800
G1 X40.541 Y41.925 E75.86707
G1 X40.999 Y41.564 E75.92007
G1 X41.462 Y41.241 E75.97141
G1 X43.281 Y40.079 E76.16764
G1 X43.761 Y39.795 E76.21836
G1 X44.284 Y39.523 E76.27199
G1 X46.242 Y38.615 E76.46822
G1 X46.731 Y38.405 E76.51667
G1 X47.310 Y38.196 E76.57258
G1 X49.525 Y37.509 E76.78350
G1 X49.941 Y37.397 E76.82261
G1 X50.485 Y37.283 E76.87318
G1 X52.788 Y36.897 E77.08554
G1 X53.727 Y36.802 E77.17135
G1 X56.186 Y36.723 E77.39507
G1 X57.239 Y36.776 E77.49097
G1 X59.387 Y36.992 E77.68720
G1 X60.107 Y37.105 E77.75352
G1 X62.589 Y37.689 E77.98538
G1 X63.224 Y37.874 E78.04552
G1 X65.696 Y38.813 E78.28595
G1 X66.278 Y39.070 E78.34381
G1 X66.734 Y39.303 E78.39030
G1 X68.951 Y40.530 E78.62077
G1 X112.817 Y67.921 E83.32322
G1 X113.317 Y68.266 E83.37849
G1 X115.869 Y70.221 E83.67080
G1 X159.657 Y107.891 E88.92307
G1 X161.701 Y109.827 E89.17905
G1 X162.194 Y110.348 E89.24428
G1 X164.017 Y112.494 E89.50027
G1 X164.451 Y113.065 E89.56549
G1 X166.031 Y115.395 E89.82148
G1 X166.401 Y116.010 E89.88670
G1 X167.719 Y118.497 E90.14269
G1 X168.021 Y119.148 E90.20792
G1 X169.063 Y121.763 E90.46391
G1 X169.301 Y122.477 E90.53233
G1 X170.045 Y125.156 E90.78512
G1 X170.199 Y125.856 E90.85034
G1 X170.655 Y128.634 E91.10633
G1 X170.732 Y129.347 E91.17156
G1 X170.885 Y132.158 E91.42754
G1 X170.885 Y132.876 E91.49277
G1 X170.732 Y135.687 E91.74876
G1 X170.655 Y136.400 E91.81397
G1 X170.199 Y139.178 E92.06997
G1 X170.045 Y139.879 E92.13520
G1 X169.292 Y142.591 E92.39118
G1 X169.063 Y143.271 E92.45637
G1 X168.021 Y145.886 E92.71240
G1 X167.719 Y146.537 E92.77762
G1 X166.401 Y149.025 E93.03361
G1 X166.031 Y149.639 E93.09881
G1 X164.451 Y151.969 E93.35482
G1 X164.017 Y152.540 E93.42003
G1 X162.194 Y154.686 E93.67604
G1 X161.701 Y155.207 E93.74126
G1 X159.657 Y157.143 E93.99725
G1 X159.111 Y157.607 E94.06248
G1 X156.869 Y159.311 E94.31846
G1 X156.246 Y159.732 E94.38685
G1 X153.863 Y161.165 E94.63967
G1 X153.230 Y161.501 E94.70488
G1 X150.675 Y162.683 E94.96089
G1 X150.008 Y162.949 E95.02611
G1 X147.340 Y163.848 E95.28210
G1 X146.649 Y164.039 E95.34733
G1 X143.900 Y164.645 E95.60331
G1 X143.192 Y164.761 E95.66854
G1 X140.393 Y165.065 E95.92453
G1 X139.677 Y165.104 E95.98975
G1 X136.862 Y165.104 E96.24574
G1 X136.146 Y165.065 E96.31095
G1 X133.347 Y164.761 E96.56695
G1 X132.604 Y164.637 E96.63538
G1 X129.889 Y164.039 E96.88816
G1 X129.198 Y163.848 E96.95338
G1 X126.530 Y162.949 E97.20938
G1 X125.864 Y162.683 E97.27460
G1 X123.309 Y161.501 E97.53059
G1 X122.675 Y161.165 E97.59582
G1 X120.263 Y159.714 E97.85180
G1 X119.669 Y159.311 E97.91703
G1 X117.117 Y157.356 E98.20933
G1 X73.329 Y119.686 E103.46159
G1 X71.286 Y117.750 E103.71758
G1 X70.808 Y117.248 E103.78056
G1 X36.478 Y77.136 E108.58137
G1 X35.907 Y76.389 E108.66685
G1 X34.686 Y74.610 E108.86308
G1 X34.423 Y74.195 E108.90771
G1 X34.116 Y73.644 E108.96507
G1 X32.981 Y71.374 E109.19588
G1 X32.703 Y70.687 E109.26328
G1 X31.843 Y68.165 E109.50556
G1 X31.693 Y67.568 E109.56149
G1 X31.263 Y65.454 E109.75772
G1 X31.191 Y65.060 E109.79408
G1 X31.104 Y64.343 E109.85983
G1 X30.942 Y61.899 E110.08255
G1 X30.939 Y61.174 E110.14841
G1 X30.956 Y60.863 E110.17673
G1 X31.100 Y58.710 E110.37296
G1 X31.162 Y58.145 E110.42462
G1 X31.249 Y57.629 E110.47220
G1 X31.679 Y55.515 E110.66843
G1 X31.784 Y55.077 E110.70935
G1 X31.983 Y54.409 E110.77274
G1 X32.842 Y51.974 E111.00748
G1 X33.137 Y51.314 E111.07328
G1 X34.111 Y49.388 E111.26950
G1 X34.433 Y48.812 E111.32947
G1 X34.694 Y48.400 E111.37384
G1 X35.915 Y46.621 E111.57007
G1 X36.294 Y46.113 E111.62769
G1 X36.624 Y45.719 E111.67441
G1 X38.071 Y44.118 E111.87064
G1 X38.496 Y43.683 E111.92595
G1 X38.860 Y43.349 E111.97089
G1 E109.97089 F2400.00000
G92 E0
G1 Z2.350 F7800.000
G1 X77.874 Y68.479 F7800.000
G1 Z0.350 F7800.000
G1 E2.00000 F2400.00000
G1 F1800
G1 X78.251 Y68.765 E2.04596
G1 X80.048 Y67.684 E2.24939
G1 X80.290 Y67.555 E2.27598
G1 X83.094 Y66.258 E2.57567
G1 X83.349 Y66.157 E2.60225
G1 X86.276 Y65.170 E2.90194
G1 X86.540 Y65.097 E2.92853
G1 X89.557 Y64.433 E3.22821
G1 X89.828 Y64.389 E3.25481
G1 X92.899 Y64.055 E3.55449
G1 X93.173 Y64.040 E3.58107
G1 X96.262 Y64.040 E3.88076
G1 X96.536 Y64.055 E3.90734
G1 X99.607 Y64.389 E4.20703
G1 X99.877 Y64.433 E4.23362
G1 X102.894 Y65.097 E4.53331
G1 X103.158 Y65.170 E4.55990
G1 X106.086 Y66.157 E4.85958
G1 X106.341 Y66.258 E4.88617
G1 X109.144 Y67.555 E5.18585
G1 X109.386 Y67.684 E5.21245
G1 X112.033 Y69.277 E5.51212
G1 X112.413 Y69.546 E5.55730
G1 X114.720 Y71.300 E5.83839
G1 X114.929 Y71.477 E5.86498
G1 X117.171 Y73.602 E6.16465
G1 X117.360 Y73.801 E6.19123
G1 X119.360 Y76.155 E6.49093
G1 X119.526 Y76.373 E6.51752
G1 X121.259 Y78.930 E6.81721
G1 X121.401 Y79.165 E6.84380
G1 X122.848 Y81.895 E7.14348
G1 X122.963 Y82.144 E7.17008
G1 X124.106 Y85.013 E7.46975
G1 X124.194 Y85.273 E7.49635
G1 X125.020 Y88.250 E7.79602
G1 X125.079 Y88.517 E7.82261
G1 X125.579 Y91.566 E8.12230
G1 X125.609 Y91.838 E8.14889
G1 X125.776 Y94.923 E8.44857
G1 X125.776 Y95.197 E8.47517
G1 X125.609 Y98.282 E8.77485
G1 X125.579 Y98.554 E8.80144
G1 X125.079 Y101.603 E9.10112
G1 X125.020 Y101.871 E9.12770
G1 X124.335 Y104.337 E9.37601
G1 X124.676 Y104.627 E9.41941
G1 X126.646 Y103.715 E9.62995
G1 X126.901 Y103.614 E9.65654
G1 X129.828 Y102.627 E9.95622
G1 X130.260 Y102.517 E9.99949
G1 X133.109 Y101.890 E10.28248
G1 X133.380 Y101.846 E10.30907
G1 X136.451 Y101.512 E10.60875
G1 X136.725 Y101.497 E10.63534
G1 X139.814 Y101.497 E10.93502
G1 X140.259 Y101.530 E10.97829
G1 X143.159 Y101.846 E11.26128
G1 X143.429 Y101.890 E11.28787
G1 X146.446 Y102.554 E11.58756
G1 X146.711 Y102.627 E11.61416
G1 X149.638 Y103.614 E11.91383
G1 X149.893 Y103.715 E11.94042
G1 X152.696 Y105.012 E12.24011
G1 X152.939 Y105.141 E12.26670
G1 X155.585 Y106.734 E12.56638
G1 X155.812 Y106.887 E12.59296
G1 X158.272 Y108.757 E12.89265
G1 X158.481 Y108.934 E12.91924
G1 X160.723 Y111.059 E13.21893
G1 X160.912 Y111.258 E13.24552
G1 X162.912 Y113.612 E13.54520
G1 X163.078 Y113.831 E13.57179
G1 X164.811 Y116.387 E13.87147
G1 X164.953 Y116.622 E13.89806
G1 X166.400 Y119.352 E14.19775
G1 X166.515 Y119.600 E14.22434
G1 X167.658 Y122.470 E14.52402
G1 X167.746 Y122.730 E14.55060
G1 X168.572 Y125.707 E14.85030
G1 X168.631 Y125.975 E14.87690
G1 X169.131 Y129.023 E15.17657
G1 X169.161 Y129.295 E15.20316
G1 X169.328 Y132.380 E15.50284
G1 X169.328 Y132.654 E15.52943
G1 X169.161 Y135.739 E15.82910
G1 X169.103 Y136.181 E15.87238
G1 X168.631 Y139.060 E16.15537
G1 X168.572 Y139.328 E16.18197
G1 X167.746 Y142.304 E16.48164
G1 X167.658 Y142.564 E16.50821
G1 X166.515 Y145.434 E16.80792
G1 X166.400 Y145.683 E16.83451
G1 X164.953 Y148.412 E17.13419
G1 X164.811 Y148.647 E17.16076
G1 X163.078 Y151.204 E17.46046
G1 X162.912 Y151.422 E17.48704
G1 X160.912 Y153.777 E17.78674
G1 X160.723 Y153.976 E17.81333
G1 X158.481 Y156.100 E18.11302
G1 X158.272 Y156.277 E18.13961
G1 X155.812 Y158.147 E18.43928
G1 X155.438 Y158.389 E18.48254
G1 X152.938 Y159.893 E18.76554
G1 X152.696 Y160.022 E18.79212
G1 X149.893 Y161.319 E19.09182
G1 X149.638 Y161.420 E19.11840
G1 X146.710 Y162.407 E19.41809
G1 X146.446 Y162.480 E19.44468
G1 X143.429 Y163.144 E19.74437
G1 X143.159 Y163.189 E19.77096
G1 X140.088 Y163.523 E20.07064
G1 X139.814 Y163.537 E20.09722
G1 X136.725 Y163.537 E20.39691
G1 X136.451 Y163.523 E20.42349
G1 X133.380 Y163.189 E20.72318
G1 X133.110 Y163.144 E20.74975
G1 X130.092 Y162.480 E21.04946
