; generated by Slic3r 1.3.0 on 2019-08-19 at 01:15:57

; external perimeters extrusion width = 0.33mm (1.72mm^3/s)
; perimeters extrusion width = 0.40mm (4.24mm^3/s)
; infill extrusion width = 0.38mm (2.66mm^3/s)
; solid infill extrusion width = 0.40mm (1.06mm^3/s)
; top infill extrusion width = 0.40mm (1.06mm^3/s)

M107
M104 S220 ; set temperature
G28 ; home all axes
G1 Z5 F5000 ; lift nozzle

; Filament gcode

M109 S220 ; set temperature and wait for it to be reached
G21 ; set units to millimeters
G90 ; use absolute coordinates
M82 ; use absolute distances for extrusion
G92 E0
G1 Z0.350 F7800.000
G1 E-2.00000 F2400.00000
G92 E0
G1 Z2.350 F7800.000
G1 X75.709 Y76.403 F7800.000
G1 Z0.350 F7800.000
G1 E2.00000 F2400.00000
G1 F1800
G1 X77.753 Y74.467 E2.25599
G1 X78.402 Y73.915 E2.33352
G1 X80.644 Y72.211 E2.58951
G1 X81.349 Y71.733 E2.66704
G1 X83.762 Y70.281 E2.92303
G1 X84.515 Y69.882 E3.00056
G1 X87.070 Y68.700 E3.25655
G1 X87.862 Y68.384 E3.33408
G1 X90.530 Y67.485 E3.59006
G1 X91.351 Y67.257 E3.66759
G1 X94.101 Y66.652 E3.92358
G1 X94.942 Y66.514 E4.00111
G1 X97.741 Y66.210 E4.25710
G1 X98.592 Y66.163 E4.33463
G1 X101.408 Y66.163 E4.59062
G1 X102.259 Y66.210 E4.66813
G1 X105.058 Y66.514 E4.92414
G1 X105.899 Y66.652 E5.00167
G1 X108.649 Y67.257 E5.25766
G1 X109.470 Y67.485 E5.33519
G1 X112.138 Y68.384 E5.59117
G1 X112.930 Y68.700 E5.66870
G1 X115.485 Y69.882 E5.92469
G1 X116.238 Y70.281 E6.00222
G1 X118.651 Y71.733 E6.25821
G1 X119.356 Y72.211 E6.33573
G1 X121.598 Y73.915 E6.59173
G1 X122.247 Y74.467 E6.66926
G1 X124.291 Y76.403 E6.92525
G1 X124.913 Y77.063 E7.00773
G1 X126.700 Y79.168 E7.25876
G1 X127.216 Y79.846 E7.33629
G1 X128.796 Y82.176 E7.59228
G1 X129.236 Y82.907 E7.66981
G1 X130.554 Y85.394 E7.92579
G1 X130.912 Y86.168 E8.00333
G1 X131.954 Y88.783 E8.25931
G1 X132.227 Y89.591 E8.33684
G1 X132.980 Y92.304 E8.59283
G1 X133.163 Y93.137 E8.67036
G1 X133.619 Y95.915 E8.92635
G1 X133.711 Y96.763 E9.00388
G1 X133.863 Y99.574 E9.25987
G1 X133.863 Y100.426 E9.33740
G1 X133.711 Y103.237 E9.59339
G1 X133.619 Y104.085 E9.67092
G1 X133.163 Y106.863 E9.92691
G1 X132.980 Y107.696 E10.00443
G1 X132.227 Y110.409 E10.26042
G1 X131.934 Y111.267 E10.34291
G1 X130.912 Y113.832 E10.59394
G1 X130.554 Y114.606 E10.67146
G1 X129.236 Y117.093 E10.92745
G1 X128.796 Y117.824 E11.00499
G1 X127.216 Y120.154 E11.26097
G1 X126.700 Y120.832 E11.33850
G1 X124.878 Y122.978 E11.59449
G1 X124.291 Y123.597 E11.67202
G1 X122.247 Y125.533 E11.92801
G1 X121.598 Y126.085 E12.00554
G1 X119.356 Y127.789 E12.26153
G1 X118.651 Y128.267 E12.33906
G1 X116.238 Y129.719 E12.59504
G1 X115.485 Y130.118 E12.67258
G1 X112.930 Y131.300 E12.92856
G1 X112.138 Y131.616 E13.00609
G1 X109.470 Y132.515 E13.26208
G1 X108.649 Y132.743 E13.33961
G1 X105.899 Y133.348 E13.59560
G1 X105.004 Y133.492 E13.67807
G1 X102.259 Y133.790 E13.92911
G1 X101.408 Y133.837 E14.00664
G1 X98.592 Y133.837 E14.26263
G1 X97.741 Y133.790 E14.34016
G1 X94.942 Y133.486 E14.59615
G1 X94.101 Y133.348 E14.67368
G1 X91.351 Y132.743 E14.92967
G1 X90.530 Y132.515 E15.00720
G1 X87.862 Y131.616 E15.26318
G1 X87.070 Y131.300 E15.34072
G1 X84.515 Y130.118 E15.59670
G1 X83.762 Y129.719 E15.67421
G1 X81.349 Y128.267 E15.93022
G1 X80.644 Y127.789 E16.00775
G1 X78.402 Y126.085 E16.26374
G1 X77.753 Y125.533 E16.34127
G1 X75.709 Y123.597 E16.59726
G1 X75.087 Y122.936 E16.67975
G1 X73.300 Y120.832 E16.93077
G1 X72.784 Y120.154 E17.00830
G1 X71.204 Y117.824 E17.26429
G1 X70.764 Y117.093 E17.34182
G1 X69.446 Y114.606 E17.59781
G1 X69.088 Y113.832 E17.67532
G1 X68.046 Y111.217 E17.93132
G1 X67.773 Y110.409 E18.00884
G1 X67.020 Y107.696 E18.26484
G1 X66.837 Y106.863 E18.34237
G1 X66.381 Y104.085 E18.59836
G1 X66.289 Y103.238 E18.67588
G1 X66.137 Y100.426 E18.93188
G1 X66.137 Y99.574 E19.00940
G1 X66.289 Y96.763 E19.26540
G1 X66.390 Y95.861 E19.34790
G1 X66.837 Y93.137 E19.59891
G1 X67.020 Y92.304 E19.67642
G1 X67.773 Y89.591 E19.93243
G1 X68.046 Y88.784 E20.00995
G1 X69.088 Y86.168 E20.26595
G1 X69.446 Y85.394 E20.34348
G1 X70.764 Y82.907 E20.59946
G1 X71.204 Y82.176 E20.67699
G1 X72.784 Y79.846 E20.93298
G1 X73.300 Y79.168 E21.01051
G1 X75.122 Y77.022 E21.26650
G1 X75.678 Y76.436 E21.33994
G1 X76.138 Y76.857 F7800.000
G1 F1800
G1 X78.182 Y74.920 E21.59593
G1 X78.781 Y74.412 E21.66731
G1 X81.022 Y72.709 E21.92329
G1 X81.671 Y72.268 E21.99467
G1 X84.084 Y70.817 E22.25066
G1 X84.777 Y70.449 E22.32204
G1 X87.332 Y69.267 E22.57803
G1 X88.062 Y68.976 E22.64940
G1 X90.729 Y68.077 E22.90539
G1 X91.486 Y67.867 E22.97677
G1 X94.235 Y67.262 E23.23276
G1 X95.010 Y67.135 E23.30414
G1 X97.809 Y66.831 E23.56012
G1 X98.592 Y66.788 E23.63150
G1 X101.408 Y66.788 E23.88749
G1 X102.191 Y66.831 E23.95885
G1 X104.990 Y67.135 E24.21486
G1 X105.765 Y67.262 E24.28623
G1 X108.514 Y67.867 E24.54222
G1 X109.271 Y68.077 E24.61360
G1 X111.938 Y68.976 E24.86959
G1 X112.668 Y69.267 E24.94097
G1 X115.223 Y70.449 E25.19695
G1 X115.916 Y70.817 E25.26833
G1 X118.329 Y72.268 E25.52432
G1 X118.978 Y72.709 E25.59569
G1 X121.219 Y74.412 E25.85168
G1 X121.818 Y74.920 E25.92306
G1 X123.862 Y76.857 E26.17905
G1 X124.401 Y77.426 E26.25041
G1 X126.224 Y79.572 E26.50642
G1 X126.699 Y80.197 E26.57779
G1 X128.279 Y82.527 E26.83378
G1 X128.684 Y83.200 E26.90516
G1 X130.002 Y85.687 E27.16115
G1 X130.332 Y86.399 E27.23253
G1 X131.374 Y89.015 E27.48851
G1 X131.625 Y89.759 E27.55989
G1 X132.378 Y92.471 E27.81588
G1 X132.546 Y93.238 E27.88726
G1 X133.002 Y96.016 E28.14325
G1 X133.087 Y96.796 E28.21462
G1 X133.239 Y99.608 E28.47061
G1 X133.239 Y100.392 E28.54199
G1 X133.087 Y103.204 E28.79798
G1 X133.002 Y103.984 E28.86936
G1 X132.546 Y106.762 E29.12534
G1 X132.378 Y107.529 E29.19672
G1 X131.625 Y110.241 E29.45271
G1 X131.354 Y111.036 E29.52905
G1 X130.332 Y113.601 E29.78007
G1 X130.002 Y114.313 E29.85144
G1 X128.684 Y116.800 E30.10743
G1 X128.279 Y117.473 E30.17881
G1 X126.699 Y119.803 E30.43480
G1 X126.224 Y120.428 E30.50618
G1 X124.401 Y122.574 E30.76216
G1 X123.862 Y123.143 E30.83354
G1 X121.818 Y125.080 E31.08953
G1 X121.219 Y125.588 E31.16091
G1 X118.978 Y127.291 E31.41690
G1 X118.329 Y127.732 E31.48828
G1 X115.916 Y129.183 E31.74426
G1 X115.223 Y129.551 E31.81564
G1 X112.668 Y130.733 E32.07163
G1 X111.887 Y131.041 E32.14797
G1 X109.271 Y131.923 E32.39899
G1 X108.514 Y132.133 E32.47036
G1 X105.765 Y132.738 E32.72635
G1 X104.990 Y132.865 E32.79771
G1 X102.191 Y133.169 E33.05372
G1 X101.408 Y133.212 E33.12510
G1 X98.592 Y133.212 E33.38109
G1 X97.809 Y133.169 E33.45246
G1 X95.010 Y132.865 E33.70845
G1 X94.235 Y132.738 E33.77983
G1 X91.486 Y132.133 E34.03582
G1 X90.729 Y131.923 E34.10720
G1 X88.062 Y131.024 E34.36318
G1 X87.332 Y130.733 E34.43456
G1 X84.777 Y129.551 E34.69055
G1 X84.084 Y129.183 E34.76191
G1 X81.671 Y127.732 E35.01792
G1 X81.022 Y127.291 E35.08929
G1 X78.781 Y125.588 E35.34528
G1 X78.182 Y125.080 E35.41665
G1 X76.138 Y123.143 E35.67265
G1 X75.563 Y122.532 E35.74899
G1 X73.776 Y120.428 E36.00001
G1 X73.301 Y119.803 E36.07139
G1 X71.721 Y117.473 E36.32737
G1 X71.316 Y116.800 E36.39875
G1 X69.998 Y114.313 E36.65474
G1 X69.668 Y113.601 E36.72610
G1 X68.626 Y110.985 E36.98210
G1 X68.376 Y110.242 E37.05347
G1 X67.622 Y107.529 E37.30947
G1 X67.454 Y106.762 E37.38084
G1 X66.998 Y103.984 E37.63684
G1 X66.913 Y103.204 E37.70820
G1 X66.761 Y100.392 E37.96420
G1 X66.761 Y99.608 E38.03557
G1 X66.913 Y96.796 E38.29157
G1 X67.007 Y95.962 E38.36790
G1 X67.454 Y93.238 E38.61893
G1 X67.622 Y92.471 E38.69029
G1 X68.375 Y89.759 E38.94629
G1 X68.626 Y89.015 E39.01766
G1 X69.668 Y86.399 E39.27366
G1 X69.998 Y85.687 E39.34504
G1 X71.316 Y83.200 E39.60102
G1 X71.721 Y82.527 E39.67240
G1 X73.301 Y80.197 E39.92839
G1 X73.776 Y79.572 E39.99977
G1 X75.599 Y77.426 E40.25576
G1 X76.107 Y76.889 E40.32304
G1 X76.568 Y77.310 F7800.000
G1 F1800
G1 X78.612 Y75.374 E40.57903
G1 X79.159 Y74.910 E40.64426
G1 X81.400 Y73.206 E40.90024
G1 X81.994 Y72.804 E40.96547
G1 X84.406 Y71.352 E41.22146
G1 X85.040 Y71.016 E41.28668
G1 X87.595 Y69.834 E41.54267
G1 X88.261 Y69.569 E41.60790
G1 X90.929 Y68.670 E41.86388
G1 X91.620 Y68.478 E41.92911
G1 X94.370 Y67.873 E42.18510
G1 X95.077 Y67.756 E42.25032
G1 X97.876 Y67.452 E42.50631
G1 X98.592 Y67.413 E42.57154
G1 X101.408 Y67.413 E42.82752
G1 X102.124 Y67.452 E42.89274
G1 X104.923 Y67.756 E43.14874
G1 X105.630 Y67.873 E43.21396
G1 X108.380 Y68.478 E43.46995
G1 X109.071 Y68.670 E43.53518
G1 X111.739 Y69.569 E43.79117
G1 X112.405 Y69.834 E43.85639
G1 X114.960 Y71.016 E44.11238
G1 X115.594 Y71.352 E44.17760
G1 X118.006 Y72.804 E44.43359
G1 X118.600 Y73.206 E44.49881
G1 X120.841 Y74.910 E44.75481
G1 X121.388 Y75.374 E44.82003
G1 X123.432 Y77.310 E45.07602
G1 X123.925 Y77.831 E45.14123
G1 X125.748 Y79.977 E45.39723
G1 X126.182 Y80.548 E45.46246
G1 X127.762 Y82.878 E45.71845
G1 X128.131 Y83.492 E45.78367
G1 X129.450 Y85.980 E46.03966
G1 X129.751 Y86.631 E46.10489
G1 X130.793 Y89.246 E46.36087
G1 X131.022 Y89.926 E46.42610
G1 X131.776 Y92.638 E46.68209
G1 X131.930 Y93.339 E46.74731
G1 X132.385 Y96.117 E47.00330
G1 X132.463 Y96.830 E47.06853
G1 X132.615 Y99.641 E47.32451
G1 X132.615 Y100.359 E47.38974
G1 X132.463 Y103.170 E47.64573
G1 X132.385 Y103.883 E47.71095
G1 X131.930 Y106.661 E47.96694
G1 X131.776 Y107.362 E48.03216
G1 X131.022 Y110.074 E48.28815
G1 X130.773 Y110.805 E48.35834
G1 X129.751 Y113.369 E48.60936
G1 X129.450 Y114.020 E48.67458
G1 X128.131 Y116.508 E48.93057
G1 X127.762 Y117.122 E48.99580
G1 X126.182 Y119.452 E49.25179
G1 X125.748 Y120.023 E49.31701
G1 X123.925 Y122.169 E49.57300
G1 X123.432 Y122.690 E49.63822
G1 X121.388 Y124.626 E49.89421
G1 X120.841 Y125.090 E49.95944
G1 X118.600 Y126.794 E50.21543
G1 X118.006 Y127.196 E50.28065
G1 X115.594 Y128.648 E50.53664
G1 X114.960 Y128.984 E50.60187
G1 X112.405 Y130.166 E50.85785
G1 X111.739 Y130.431 E50.92307
G1 X109.071 Y131.330 E51.17907
G1 X108.380 Y131.522 E51.24429
G1 X105.630 Y132.127 E51.50028
G1 X104.923 Y132.244 E51.56548
G1 X102.124 Y132.548 E51.82150
G1 X101.408 Y132.587 E51.88672
G1 X98.592 Y132.587 E52.14271
G1 X97.876 Y132.548 E52.20793
G1 X95.077 Y132.244 E52.46392
G1 X94.370 Y132.127 E52.52915
G1 X91.620 Y131.522 E52.78514
G1 X90.929 Y131.330 E52.85036
G1 X88.261 Y130.431 E53.10635
G1 X87.595 Y130.166 E53.17158
G1 X85.040 Y128.984 E53.42756
G1 X84.406 Y128.648 E53.49277
G1 X81.994 Y127.196 E53.74878
G1 X81.400 Y126.794 E53.81400
G1 X79.159 Y125.090 E54.06999
G1 X78.612 Y124.626 E54.13521
G1 X76.568 Y122.690 E54.39120
G1 X76.075 Y122.169 E54.45642
G1 X74.252 Y120.023 E54.71242
G1 X73.818 Y119.452 E54.77764
G1 X72.238 Y117.122 E55.03363
G1 X71.869 Y116.508 E55.09886
G1 X70.550 Y114.020 E55.35484
G1 X70.249 Y113.369 E55.42006
G1 X69.207 Y110.754 E55.67606
G1 X68.978 Y110.074 E55.74127
G1 X68.224 Y107.362 E55.99727
G1 X68.070 Y106.661 E56.06249
G1 X67.615 Y103.883 E56.31848
G1 X67.537 Y103.170 E56.38369
G1 X67.385 Y100.359 E56.63970
G1 X67.385 Y99.641 E56.70492
G1 X67.537 Y96.830 E56.96091
G1 X67.624 Y96.063 E57.03109
G1 X68.070 Y93.339 E57.28212
G1 X68.224 Y92.639 E57.34733
G1 X68.978 Y89.926 E57.60333
G1 X69.207 Y89.246 E57.66855
G1 X70.249 Y86.631 E57.92454
G1 X70.550 Y85.980 E57.98977
G1 X71.869 Y83.492 E58.24576
G1 X72.238 Y82.878 E58.31098
G1 X73.818 Y80.548 E58.56697
G1 X74.252 Y79.977 E58.63220
G1 X76.075 Y77.831 E58.88818
G1 X76.537 Y77.343 E58.94932
G1 X77.645 Y78.447 F7800.000
G1 F1800
G1 X79.789 Y76.417 E59.23571
G1 X79.998 Y76.240 E59.26230
G1 X82.457 Y74.370 E59.56199
G1 X82.684 Y74.216 E59.58857
G1 X85.331 Y72.624 E59.88826
G1 X85.573 Y72.495 E59.91484
G1 X88.377 Y71.198 E60.21453
G1 X88.631 Y71.097 E60.24112
G1 X91.559 Y70.110 E60.54081
G1 X91.823 Y70.037 E60.56739
G1 X94.840 Y69.373 E60.86708
G1 X95.111 Y69.329 E60.89368
G1 X98.182 Y68.995 E61.19335
G1 X98.455 Y68.980 E61.21994
G1 X101.545 Y68.980 E61.51962
G1 X102.009 Y69.015 E61.56479
G1 X104.889 Y69.329 E61.84589
G1 X105.160 Y69.373 E61.87247
G1 X108.177 Y70.037 E62.17216
G1 X108.441 Y70.110 E62.19875
G1 X111.369 Y71.097 E62.49843
G1 X111.623 Y71.198 E62.52502
G1 X114.427 Y72.495 E62.82471
G1 X114.669 Y72.624 E62.85130
G1 X117.316 Y74.216 E63.15098
G1 X117.543 Y74.370 E63.17756
G1 X120.002 Y76.240 E63.47725
G1 X120.211 Y76.417 E63.50384
G1 X122.454 Y78.542 E63.80352
G1 X122.642 Y78.741 E63.83010
G1 X124.642 Y81.095 E64.12980
G1 X124.808 Y81.313 E64.15638
G1 X126.542 Y83.870 E64.45607
G1 X126.683 Y84.105 E64.48266
G1 X128.130 Y86.835 E64.78235
G1 X128.245 Y87.083 E64.80895
G1 X129.389 Y89.953 E65.10862
G1 X129.476 Y90.213 E65.13522
G1 X130.303 Y93.190 E65.43489
G1 X130.362 Y93.457 E65.46148
G1 X130.862 Y96.506 E65.76117
G1 X130.891 Y96.778 E65.78776
G1 X131.058 Y99.863 E66.08744
G1 X131.058 Y100.137 E66.11404
G1 X130.891 Y103.222 E66.41371
G1 X130.862 Y103.494 E66.44031
G1 X130.362 Y106.543 E66.73999
G1 X130.303 Y106.810 E66.76657
G1 X129.476 Y109.787 E67.06626
G1 X129.318 Y110.225 E67.11143
G1 X128.245 Y112.917 E67.39252
G1 X128.130 Y113.165 E67.41910
G1 X126.683 Y115.895 E67.71879
G1 X126.542 Y116.130 E67.74538
G1 X124.808 Y118.687 E68.04507
G1 X124.642 Y118.905 E68.07166
G1 X122.643 Y121.259 E68.37134
G1 X122.454 Y121.458 E68.39792
G1 X120.211 Y123.583 E68.69761
G1 X120.002 Y123.760 E68.72420
G1 X117.543 Y125.630 E69.02389
G1 X117.316 Y125.784 E69.05048
G1 X114.669 Y127.376 E69.35016
G1 X114.427 Y127.505 E69.37675
G1 X111.623 Y128.802 E69.67643
G1 X111.369 Y128.903 E69.70301
G1 X108.441 Y129.890 E70.00271
G1 X108.177 Y129.963 E70.02929
G1 X105.160 Y130.627 E70.32897
G1 X104.699 Y130.692 E70.37414
G1 X101.818 Y131.005 E70.65524
G1 X101.545 Y131.020 E70.68182
G1 X98.455 Y131.020 E70.98152
G1 X98.182 Y131.005 E71.00811
G1 X95.111 Y130.671 E71.30779
G1 X94.840 Y130.627 E71.33438
G1 X91.823 Y129.963 E71.63406
G1 X91.559 Y129.890 E71.66066
G1 X88.631 Y128.903 E71.96033
G1 X88.377 Y128.802 E71.98692
G1 X85.573 Y127.505 E72.28660
G1 X85.331 Y127.376 E72.31318
G1 X82.684 Y125.784 E72.61288
G1 X82.457 Y125.630 E72.63947
G1 X79.998 Y123.760 E72.93915
G1 X79.789 Y123.583 E72.96573
G1 X77.546 Y121.458 E73.26542
G1 X77.357 Y121.259 E73.29201
G1 X75.358 Y118.905 E73.59170
G1 X75.192 Y118.687 E73.61829
G1 X73.458 Y116.130 E73.91797
G1 X73.317 Y115.895 E73.94456
G1 X71.870 Y113.165 E74.24424
G1 X71.684 Y112.739 E74.28942
G1 X70.611 Y110.047 E74.57050
G1 X70.524 Y109.787 E74.59708
G1 X69.697 Y106.810 E74.89677
G1 X69.638 Y106.543 E74.92336
G1 X69.138 Y103.494 E75.22305
G1 X69.109 Y103.222 E75.24963
G1 X68.942 Y100.137 E75.54932
G1 X68.942 Y99.863 E75.57591
G1 X69.109 Y96.778 E75.87559
G1 X69.138 Y96.506 E75.90218
G1 X69.638 Y93.457 E76.20187
G1 X69.697 Y93.190 E76.22845
G1 X70.524 Y90.213 E76.52814
G1 X70.611 Y89.953 E76.55472
G1 X71.755 Y87.083 E76.85442
G1 X71.870 Y86.835 E76.88100
G1 X73.317 Y84.105 E77.18069
G1 X73.458 Y83.870 E77.20728
G1 X75.192 Y81.313 E77.50696
G1 X75.358 Y81.095 E77.53355
G1 X77.357 Y78.741 E77.83324
G1 X77.613 Y78.478 E77.86874
G1 X78.104 Y78.931 F7800.000
G1 F1800
G1 X80.415 Y76.759 E78.17644
G1 X83.043 Y74.778 E78.49567
G1 X85.869 Y73.093 E78.81490
G1 X88.861 Y71.723 E79.13414
G1 X91.984 Y70.684 E79.45337
G1 X94.966 Y70.028 E79.74956
G1 X98.236 Y69.659 E80.06879
G1 X101.527 Y69.646 E80.38802
G1 X104.799 Y69.989 E80.70726
G1 X108.016 Y70.684 E81.02650
G1 X111.139 Y71.723 E81.34573
G1 X111.360 Y71.811 E81.36881
G1 X114.341 Y73.204 E81.68805
G1 X117.154 Y74.912 E82.00727
G1 X119.585 Y76.760 E82.30346
G1 X121.982 Y79.013 E82.62269
G1 X124.123 Y81.513 E82.94193
G1 X125.980 Y84.229 E83.26117
G1 X127.533 Y87.131 E83.58040
G1 X127.633 Y87.347 E83.60349
G1 X128.839 Y90.409 E83.92272
G1 X129.707 Y93.583 E84.24195
G1 X130.201 Y96.596 E84.53813
